X:1
T:C Major Daniel Read, 1786
T:Isaac Watts, 1706 ( False Greatness ) 88. 88. (L. M.)
T:Stonington
T:No copyright. Transcribed from the American Musical Magazine, 1786.
%%score [ 1 2 3 4 ]
L:1/8
M:4/4
K:Eb
V:1 treble nm="Treble" snm="Tr."
V:2 treble nm="Counter" snm="C."
V:3 treble-8 nm="Tenor" snm="T."
V:4 bass nm="Bass" snm="B."
V:1
 e4 | e2 B2 d2 e2 | (e4 d2) c2 | B6 e2 | (d2 B2 e2) dc | B4 B4 | B8- | B4 B4 | c2 c2 B2 B2 | %9
 G4 G4 | c6 B2 | e2 B2 G2 G2 | G6 z2 | G4 c4- | c2 B2 e2 e2 | e6 B2 | c6 d2 | B2 B2 B4 |] %18
V:2
 E4 | G2 G2 F2 B2 | (AGFE D2) D2 | D6 E2 | (F2 E2 A2) F2 | G4 F4 | G8 | z4 B4 | A2 A2 G2 GF | %9
w: Let|a broad stream with|gol- * * * * den|sands Through|all * * his|mea- dows|roll;|He's|but a wretch with *|
 E4 (F2 G2) | F6 F2 | E2 E2 E2 E2 | E6 z2 | B4 A4- | A2 F2 G2 G2 | G6 E2 | F6 F2 | E2 E2 E4 |] %18
w: all his *|lands, That|wears a nar- row|soul,|That wears|* a nar- row|soul, That|wears a|nar- row soul.|
V:3
 B4 | c2 e2 d2 B2 | (c4 B2) e2 | G6 c2 | (c2 B2 c2) d2 | e4 f4 | e8 | z4 e4 | c2 f2 B2 d2 | %9
 c4 (B2 AG) | A6 B2 | c2 e2 c2 c2 | c6 z2 | B4 e4- | e2 dc B2 B2 | B6 G2 | A6 B2 | G2 G2 G4 |] %18
V:4
 E,4 | E,2 E,2 F,2 G,2 | (A,4 B,2) A,2 | G,6 G,2 | (F,2 G,2 A,2) B,2 | E,4 D,4 | E,8- | E,4 G,4 | %8
 A,2 F,2 G,2 G,2 | C,4 (D,2 E,2) | F,6 D,2 | E,2 G,2 C,2 C,2 | C,6 z2 | G,4 A,4- | %14
 A,2 B,2 G,2 G,2 | G,6 G,2 | F,6 B,,2 | E,2 E,2 E,4 |] %18

